X: 24
T: Missa Ave sanctissima Maria / Agnus Dei
N: Derived from Rue1005e-Missa_Ave_sanctissima_Maria-Agnus.krn
C: Pierre de la Rue
%%abc-version 2.0
%%abcx-abcm2ps-target-version 5.9.1 (29 Sep 2008)
%%abc-creator hum2abc beta
%%abcx-conversion-date 2019/02/17 08:01:10
%%abc-edited-by Jesse Rodin
%%abc-edited-by Chris Gage 01-02-2012
%%abcx-initial-encoding-date 2013/07/19/
%%humdrum-veritas 3701179779
%%humdrum-veritas-data 1395592247
%%linebreak <none>
%%barnumbers 0
L: 1/4
M: 3/1
Q: 1/2=120
V: 1 clef=treble
V: 2 clef=treble
V: 3 clef=treble-8
V: 4 clef=treble-8
V: 5 clef=bass
V: 6 clef=bass
K: C
[V:1] z12 | 
[V:2] z4z4G4 | 
[V:3] z12 | 
[V:4] G3AB2c4B2 | 
[V:5] z12 | 
[V:6] z4z4G,,4 | 
[V:1] z12 | 
[V:2] E3FG2A4G2 | 
[V:3] z12 | 
[V:4] c8c4 | 
[V:5] z12 | 
[V:6] C,3D,E,2F,4E,2 | 
[V:1] z12 | 
[V:2] A2GFE4z2A2- | 
[V:3] z12 | 
[V:4] c4z2c4BA | 
[V:5] z12 | 
[V:6] F,2E,D,C,4z4 | 
[V:1] z12 | 
[V:2] A2G2F2D2E4 | 
[V:3] z12 | 
[V:4] B4A2d4c2 | 
[V:5] z12 | 
[V:6] z12 | 
[V:1] z12 | 
[V:2] D4z4z4 | 
[V:3] z12 | 
[V:4] B2AGA4G2G2- | 
[V:5] z12 | 
[V:6] z2D,4C,2B,,2G,,2 | 
[V:1] z12 | 
[V:2] z4z2D4C2 | 
[V:3] z12 | 
[V:4] G2^F2G2B4A2 | 
[V:5] z12 | 
[V:6] A,,4G,,4z4 | 
[V:1] z12 | 
[V:2] B,2G,2A,4G,2G2- | 
[V:3] z12 | 
[V:4] G2E2D4G4 | 
[V:5] z12 | 
[V:6] z2G,4F,2E,2C,2 | 
[V:1] z12 | 
[V:2] G2F2E2C2D4 | 
[V:3] z12 | 
[V:4] z4z2c4B2 | 
[V:5] z12 | 
[V:6] D,4C,4G,,4 | 
[V:1] z12 | 
[V:2] E12 | 
[V:3] z12 | 
[V:4] A3G/F/G4z2c2- | 
[V:5] z12 | 
[V:6] C,12- | 
[V:1] z4z4c4 | 
[V:2] z12 | 
[V:3] c3de2f4e2 | 
[V:4] c2B2A2GFG4 | 
[V:5] z4z4C,4 | 
[V:6] C,12 | 
[V:1] A3_Bc2d4c2 | 
[V:2] z12 | 
[V:3] f8f4 | 
[V:4] F4z4z4 | 
[V:5] F,3G,A,2_B,4A,2 | 
[V:6] z12 | 
[V:1] d2c_BA4z2d2- | 
[V:2] z12 | 
[V:3] f4z2f4ed | 
[V:4] z12 | 
[V:5] _B,2A,G,F,4z4 | 
[V:6] z12 | 
[V:1] d2c2_B2G2A4 | 
[V:2] z12 | 
[V:3] e4d2g4f2 | 
[V:4] z12 | 
[V:5] z12 | 
[V:6] z12 | 
[V:1] G4z4z4 | 
[V:2] z12 | 
[V:3] e2dcd4c2c2- | 
[V:4] z12 | 
[V:5] z2G,4F,2E,2C,2 | 
[V:6] z12 | 
[V:1] z4z2G4F2 | 
[V:2] z12 | 
[V:3] c2B2c2e4d2 | 
[V:4] z12 | 
[V:5] D,4C,4z4 | 
[V:6] z12 | 
[V:1] E2C2D4C2c2- | 
[V:2] z12 | 
[V:3] c2A2G4c4 | 
[V:4] z12 | 
[V:5] z2C4_B,2A,2F,2 | 
[V:6] z12 | 
[V:1] c2_B2A2F2G4 | 
[V:2] z12 | 
[V:3] z4z2f4e2 | 
[V:4] z4z4c4 | 
[V:5] G,4F,4C,4 | 
[V:6] z4z4C,4 | 
[V:1] A12 | 
[V:2] F8F4 | 
[V:3] d3c/_B/c4z2f2- | 
[V:4] A4A2A3GFE | 
[V:5] F,12- | 
[V:6] F,,8F,,4 | 
[V:1] z12 | 
[V:2] D4F3GA4 | 
[V:3] f2e2d2c_Bc4 | 
[V:4] D8F4 | 
[V:5] F,12 | 
[V:6] _B,,8A,,4 | 
[V:1] z12 | 
[V:2] D4z2D2E2F2 | 
[V:3] _B4z4z4 | 
[V:4] G2D2G2B2A4 | 
[V:5] z12 | 
[V:6] G,,8z2D,2 | 
[V:1] z12 | 
[V:2] G4z2D2EDEF | 
[V:3] z12 | 
[V:4] G8z4 | 
[V:5] z12 | 
[V:6] E,3F,G,4z2D,2 | 
[V:1] z12 | 
[V:2] GFGA_B2A3GG2- | 
[V:3] z12 | 
[V:4] z12 | 
[V:5] z12 | 
[V:6] E,D,E,F,G,F,G,A,_B,2G,2 | 
[V:1] z12 | 
[V:2] G2^F2G8 | 
[V:3] z12 | 
[V:4] z2D2EDEFGFGA | 
[V:5] z12 | 
[V:6] A,4G,2G,,3A,,B,,C, | 
[V:1] z12 | 
[V:2] z2C3DE2FEDC | 
[V:3] z12 | 
[V:4] _B2A3GG4F2 | 
[V:5] z12 | 
[V:6] D,2C,3B,,A,,G,,A,,4 | 
[V:1] z12 | 
[V:2] B,A,E3DD4^C2 | 
[V:3] z12 | 
[V:4] G2G4F2E4 | 
[V:5] z12 | 
[V:6] G,,2C,2D,4A,,4 | 
[V:1] z12 | 
[V:2] D6CB,A,4 | 
[V:3] z4z4f4 | 
[V:4] D2_B4AGF2F2 | 
[V:5] z4z4F,4 | 
[V:6] D,8D,4 | 
[V:1] _B8B4 | 
[V:2] _B,6G,2G,4 | 
[V:3] d4d2d3c_BA | 
[V:4] G8D4 | 
[V:5] _B,,8B,,4 | 
[V:6] G,,12 | 
[V:1] G4_B3cd4 | 
[V:2] z12 | 
[V:3] G8_B4 | 
[V:4] z2_B4AGF2GF | 
[V:5] _E,8D,4 | 
[V:6] z12 | 
[V:1] G4z2G2A2_B2 | 
[V:2] z12 | 
[V:3] c2G2c2_e2d4 | 
[V:4] G8z4 | 
[V:5] C,8z2G,2 | 
[V:6] z12 | 
[V:1] c4z2G2AGA_B | 
[V:2] z12 | 
[V:3] c8z4 | 
[V:4] z12 | 
[V:5] A,3_B,C4z2G,2 | 
[V:6] z12 | 
[V:1] c_Bcd_e2d3cc2- | 
[V:2] G12 | 
[V:3] z12 | 
[V:4] z4z4G4 | 
[V:5] A,G,A,_B,CB,CD_E2C2 | 
[V:6] z4z4C,4 | 
[V:1] c2B2c8 | 
[V:2] G4E3F/G/A4 | 
[V:3] z2G2AGA_Bc_Bcd | 
[V:4] G2G2C2c4_BA | 
[V:5] D4C2C,3D,E,F, | 
[V:6] G,,2G,,2C,3B,,A,,4 | 
[V:1] z2F3GA2_BAGF | 
[V:2] z2D3EF2G2D2 | 
[V:3] _e2d3cc4_B2 | 
[V:4] _B3AF4z2_B2 | 
[V:5] G,2F,3E,D,C,D,4 | 
[V:6] G,,2_B,,2B,,2A,,2G,,4 | 
[V:1] EDA3GG4^F2 | 
[V:2] z2F2E3D/C/D4 | 
[V:3] c2c4_B2A4 | 
[V:4] A_Bc_BG2G2A4 | 
[V:5] C,2F,2G,4D,4- | 
[V:6] A,,2F,,2C,2G,,2D,4 | 
[V:1] G12 ||  
[V:2] D12 ||  
[V:3] G12 ||  
[V:4] _B12 ||  
[V:5] D,12 ||  
[V:6] G,,12 ||  
[V:1]  [K:C] [K:clef=treble][M:2/1]z8 | 
[V:2]  [K:C] [K:clef=treble][M:2/1]G8- | 
[V:3]  [K:C] [K:clef=treble-8][M:2/1]z8 | 
[V:4]  [K:C] [K:clef=treble-8][M:2/1]G4G2E2- | 
[V:5]  [K:C] [K:clef=bass][M:2/1]z8 | 
[V:6]  [K:C] [K:clef=bass][M:2/1]G,,3A,,B,,2C,2- | 
[V:1] z8 | 
[V:2] G8 | 
[V:3] z8 | 
[V:4] EDEFG2C2 | 
[V:5] z8 | 
[V:6] C,B,,C,D,E,4 | 
[V:1] z8 | 
[V:2] G8 | 
[V:3] z8 | 
[V:4] c4B4 | 
[V:5] z8 | 
[V:6] C,3D,E,4 | 
[V:1] c8- | 
[V:2] A8 | 
[V:3] c4c2A2- | 
[V:4] A8 | 
[V:5] C,3D,E,2F,2- | 
[V:6] A,,8 | 
[V:1] c8 | 
[V:2] A8 | 
[V:3] AGABc2F2 | 
[V:4] z8 | 
[V:5] F,E,F,G,A,4 | 
[V:6] z8 | 
[V:1] c8 | 
[V:2] A8 | 
[V:3] f4e4 | 
[V:4] z4E4 | 
[V:5] F,3G,A,4 | 
[V:6] z4A,,4 | 
[V:1] d8 | 
[V:2] F8 | 
[V:3] d8 | 
[V:4] F3GA_BA2- | 
[V:5] D,8 | 
[V:6] D,8- | 
[V:1] d8 | 
[V:2] F8 | 
[V:3] z8 | 
[V:4] AGFED2d2- | 
[V:5] z8 | 
[V:6] D,8 | 
[V:1] d8 | 
[V:2] F8 | 
[V:3] z4A4 | 
[V:4] d2cBA4 | 
[V:5] z4D,4 | 
[V:6] D,8 | 
[V:1] B8 | 
[V:2] G8 | 
[V:3] B3cded2- | 
[V:4] G8 | 
[V:5] G,8- | 
[V:6] G,,8- | 
[V:1] B8 | 
[V:2] G8 | 
[V:3] dcBAG2g2- | 
[V:4] z8 | 
[V:5] G,8 | 
[V:6] G,,8 | 
[V:1] B8 | 
[V:2] G8 | 
[V:3] g2fed4 | 
[V:4] z8 | 
[V:5] G,8 | 
[V:6] G,,8 | 
[V:1] c8 | 
[V:2] E8 | 
[V:3] c8 | 
[V:4] z4z2C2- | 
[V:5] C,8- | 
[V:6] A,,3B,,C,2A,,2- | 
[V:1] c8 | 
[V:2] E8 | 
[V:3] z8 | 
[V:4] CDEFG2A2 | 
[V:5] C,8 | 
[V:6] A,,B,,C,D,E,2A,,2 | 
[V:1] c8 | 
[V:2] E8 | 
[V:3] z8 | 
[V:4] A2GFE4 | 
[V:5] C,8 | 
[V:6] A,,8 | 
[V:1] A8 | 
[V:2] F8- | 
[V:3] z4z2F2- | 
[V:4] z2D3EFG | 
[V:5] D,3E,F,2D,2- | 
[V:6] z8 | 
[V:1] A8 | 
[V:2] F4F4 | 
[V:3] FGABc2d2 | 
[V:4] A4F3G | 
[V:5] D,E,F,G,A,2D,2 | 
[V:6] z8 | 
[V:1] A8 | 
[V:2] F8 | 
[V:3] d2cBA4 | 
[V:4] AGFEF4 | 
[V:5] D,8 | 
[V:6] z4D,4 | 
[V:1] B8- | 
[V:2] z8 | 
[V:3] z2G3ABc | 
[V:4] G8 | 
[V:5] z8 | 
[V:6] G,,4G,,4 | 
[V:1] B4B4 | 
[V:2] z8 | 
[V:3] d4B3c | 
[V:4] z2G3FE2 | 
[V:5] z8 | 
[V:6] G,,4G,,4 | 
[V:1] B8 | 
[V:2] z8 | 
[V:3] dcBAB4 | 
[V:4] D2C2D4 | 
[V:5] z4G,4 | 
[V:6] G,,4G,,4 | 
[V:1] z8 | 
[V:2] z8 | 
[V:3] c8 | 
[V:4] C4c4 | 
[V:5] C,4C,4 | 
[V:6] C,3D,E,2C,2- | 
[V:1] z8 | 
[V:2] z8 | 
[V:3] z2c3BA2 | 
[V:4] c4c4 | 
[V:5] C,4C,4 | 
[V:6] C,D,E,F,E,2A,,2 | 
[V:1] z8 | 
[V:2] z8 | 
[V:3] G2F2G4 | 
[V:4] c8 | 
[V:5] C,4C,4 | 
[V:6] C,3D,E,4 | 
[V:1] z8 | 
[V:2] z8 | 
[V:3] F4f4 | 
[V:4] d6cB | 
[V:5] F,3G,A,2F,2- | 
[V:6] D,8- | 
[V:1] z8 | 
[V:2] z8 | 
[V:3] f4f4 | 
[V:4] A2D2F3G | 
[V:5] F,G,A,_B,A,2D,2 | 
[V:6] D,8- | 
[V:1] z8 | 
[V:2] z8 | 
[V:3] f8 | 
[V:4] A2_B2A2D2- | 
[V:5] F,3G,A,4 | 
[V:6] D,8 | 
[V:1] z8 | 
[V:2] G6G2 | 
[V:3] g6fe | 
[V:4] D2E4DC | 
[V:5] G,8- | 
[V:6] G,,8- | 
[V:1] z8 | 
[V:2] G4G4 | 
[V:3] d2G2B3c | 
[V:4] D2E2D2E2 | 
[V:5] G,8- | 
[V:6] G,,8- | 
[V:1] z8 | 
[V:2] G8 | 
[V:3] d2e2d2G2- | 
[V:4] D2C2D4 | 
[V:5] G,8 | 
[V:6] G,,8 | 
[V:1] c6c2 | 
[V:2] E4E4- | 
[V:3] G2A4GF | 
[V:4] C4z4 | 
[V:5] C,8- | 
[V:6] z8 | 
[V:1] c4c4 | 
[V:2] E4E4 | 
[V:3] G2A2G2A2 | 
[V:4] z8 | 
[V:5] C,8- | 
[V:6] z8 | 
[V:1] c8 | 
[V:2] E4E4 | 
[V:3] G2F2G4 | 
[V:4] z4C4 | 
[V:5] C,8 | 
[V:6] z4C,4 | 
[V:1] A4A4- | 
[V:2] F6ED | 
[V:3] F4z4 | 
[V:4] F3GA2A2- | 
[V:5] z8 | 
[V:6] D,4D,4 | 
[V:1] A4A4 | 
[V:2] C2D4^C2 | 
[V:3] z8 | 
[V:4] AGF2E4 | 
[V:5] z8 | 
[V:6] A,,8 | 
[V:1] A4A4 | 
[V:2] D8- | 
[V:3] z4F4 | 
[V:4] D8- | 
[V:5] z4F,4 | 
[V:6] D,8 | 
[V:1] _B6AG | 
[V:2] D8 | 
[V:3] _B3cd2d2- | 
[V:4] D8 | 
[V:5] G,4G,4 | 
[V:6] G,,8 | 
[V:1] F2G4^F2 | 
[V:2] z8 | 
[V:3] dc_B2A4 | 
[V:4] z8 | 
[V:5] D,8 | 
[V:6] z8 | 
[V:1] G8- | 
[V:2] z2G2G3F | 
[V:3] G8- | 
[V:4] z8 | 
[V:5] G,8 | 
[V:6] z4z2G,2 | 
[V:1] G8 | 
[V:2] E2D2C3B, | 
[V:3] G8 | 
[V:4] z8 | 
[V:5] C,8 | 
[V:6] G,3F,E,2D,2 | 
[V:1] z8 | 
[V:2] G,2A,3^G,G,2 | 
[V:3] z8 | 
[V:4] z8 | 
[V:5] z8 | 
[V:6] C,2B,,A,,B,,4 | 
[V:1] z2c2c3B | 
[V:2] A,4A4 | 
[V:3] z8 | 
[V:4] A8 | 
[V:5] z4z2C2 | 
[V:6] A,,8- | 
[V:1] A2G2F3E | 
[V:2] A4A4 | 
[V:3] z8 | 
[V:4] A4A4 | 
[V:5] C3B,A,2G,2 | 
[V:6] A,,8- | 
[V:1] C2D3^CC2 | 
[V:2] A8 | 
[V:3] z8 | 
[V:4] A8 | 
[V:5] F,2E,D,E,4 | 
[V:6] A,,8 | 
[V:1] D4d4 | 
[V:2] F6D2 | 
[V:3] d8 | 
[V:4] A6F2 | 
[V:5] D,8- | 
[V:6] z8 | 
[V:1] d4d4 | 
[V:2] D3EF2G2 | 
[V:3] d4d4 | 
[V:4] F3GA2G2 | 
[V:5] D,8- | 
[V:6] z2D,4G,,2 | 
[V:1] d8 | 
[V:2] A2G3^FF2 | 
[V:3] d8 | 
[V:4] F2G2A4 | 
[V:5] D,8 | 
[V:6] D,2G,,2D,4 | 
[V:1] B6G2 | 
[V:2] G8 | 
[V:3] d6B2 | 
[V:4] G8 | 
[V:5] z8 | 
[V:6] G,,8 | 
[V:1] G3AB2c2 | 
[V:2] z8 | 
[V:3] B3cd2c2 | 
[V:4] z8 | 
[V:5] z2G,4C,2 | 
[V:6] z8 | 
[V:1] d2c3BB2 | 
[V:2] z8 | 
[V:3] B2c2d4 | 
[V:4] z8 | 
[V:5] G,2C,2G,4 | 
[V:6] z8 | 
[V:1] c8 | 
[V:2] z2G2G3F | 
[V:3] c8 | 
[V:4] z8 | 
[V:5] C,8 | 
[V:6] z4z2G,2 | 
[V:1] z8 | 
[V:2] E2D2C3B, | 
[V:3] z8 | 
[V:4] z8 | 
[V:5] z8 | 
[V:6] G,3F,E,2D,2 | 
[V:1] z8 | 
[V:2] G,2A,4^G,2 | 
[V:3] z8 | 
[V:4] z8 | 
[V:5] z8 | 
[V:6] C,2B,,A,,B,,4 | 
[V:1] z2c2c3B | 
[V:2] A,4A4 | 
[V:3] z8 | 
[V:4] A8 | 
[V:5] z4z2C2 | 
[V:6] A,,8- | 
[V:1] A2G2F3E | 
[V:2] A4A4 | 
[V:3] z8 | 
[V:4] A4A4 | 
[V:5] C3B,A,2G,2 | 
[V:6] A,,8- | 
[V:1] C2D4^C2 | 
[V:2] A8 | 
[V:3] z8 | 
[V:4] A8 | 
[V:5] F,2E,D,E,4 | 
[V:6] A,,8 | 
[V:1] D4d4 | 
[V:2] F6D2 | 
[V:3] d8 | 
[V:4] A4A2_B2- | 
[V:5] D,8- | 
[V:6] z2D,2D,2G,,2- | 
[V:1] d4d4 | 
[V:2] D3EFDFG | 
[V:3] d4d4 | 
[V:4] BAG2F2d2- | 
[V:5] D,8- | 
[V:6] G,,A,,B,,C,D,2G,,2 | 
[V:1] d8 | 
[V:2] A2G4^F2 | 
[V:3] d8 | 
[V:4] dc_B2A4 | 
[V:5] D,8- | 
[V:6] F,,2G,,2D,4 | 
[V:1] B6G2 | 
[V:2] G8- | 
[V:3] d4d4- | 
[V:4] G8- | 
[V:5] D,8- | 
[V:6] G,,8- | 
[V:1] G8 |]  
[V:2] G8 |]  
[V:3] d8 |]  
[V:4] G8 |]  
[V:5] D,8 |]  
[V:6] G,,8 |]  



